assets/img/braze_icons/globe-06.svg

<svg fill="none" height="24" viewBox="0 0 24 24" width="24" xmlns="http://www.w3.org/2000/svg"><g clip-rule="evenodd" fill="#801ed7" fill-rule="evenodd"><path d="m9.59235 3.32566c.76635-.21225 1.57375-.32566 2.40765-.32566 1.962 0 3.7773.62779 5.2561 1.69345-.7868.52004-1.3737 1.08474-1.7805 1.68848-.6216.92252-.7809 1.87651-.6522 2.74694.125.84529.5132 1.56713.9212 2.10123.3956.5178.881.9509 1.3085 1.1645 1.0763.5381 2.3183.8076 3.2468.9464.84.1257 2.6207.5461 2.6866-.7918.009-.182.0135-.3651.0135-.5492 0-6.07513-4.9249-11-11-11-6.07513 0-11 4.92487-11 11 0 6.0751 4.92487 11 11 11 .1841 0 .3672-.0045.5492-.0135.5516-.0272.9768-.4963.9496-1.048-.0272-.5516-.4964-.9767-1.048-.9496-.1493.0074-.2996.0111-.4508.0111-3.50937 0-6.54962-2.0086-8.03381-4.9389l.96855-.5591 3.57271.6686c.92564.1733 1.78015-.5393 1.77595-1.481l-.014-3.1531 1.8258-3.12599c.2959-.50647.2694-1.1389-.0678-1.61884z"/><path d="m13.9456 12.6561c-.3679-.1396-.7835-.0504-1.0617.2279-.2783.2783-.3675.6938-.2279 1.0618l3.1668 8.3487c.1462.3855.5139.6417.9261.6454.4122.0036.7844-.2461.9374-.6288l1.3207-3.304 3.304-1.3206c.3827-.1531.6324-.5253.6287-.9375-.0036-.4122-.2598-.7799-.6453-.9261z"/></g></svg>

<svg width="24" height="24" viewBox="0 0 24 24" fill="none" xmlns="http://www.w3.org/2000/svg">
<path fill-rule="evenodd" clip-rule="evenodd" d="M9.59235 3.32566C10.3587 3.11341 11.1661 3 12 3C13.962 3 15.7773 3.62779 17.2561 4.69345C16.4693 5.21349 15.8824 5.77819 15.4756 6.38193C14.854 7.30445 14.6947 8.25844 14.8234 9.12887C14.9484 9.97416 15.3366 10.696 15.7446 11.2301C16.1402 11.7479 16.6256 12.181 17.0531 12.3946C18.1294 12.9327 19.3714 13.2022 20.2999 13.341C21.1399 13.4667 22.9206 13.8871 22.9865 12.5492C22.9955 12.3672 23 12.1841 23 12C23 5.92487 18.0751 1 12 1C5.92487 1 1 5.92487 1 12C1 18.0751 5.92487 23 12 23C12.1841 23 12.3672 22.9955 12.5492 22.9865C13.1008 22.9593 13.526 22.4902 13.4988 21.9385C13.4716 21.3869 13.0024 20.9618 12.4508 20.9889C12.3015 20.9963 12.1512 21 12 21C8.49063 21 5.45038 18.9914 3.96619 16.0611L4.93474 15.502L8.50745 16.1706C9.43309 16.3439 10.2876 15.6313 10.2834 14.6896L10.2694 11.5365L12.0952 8.41051C12.3911 7.90404 12.3646 7.27161 12.0274 6.79167L9.59235 3.32566Z" fill="#801ED7"/>
<path fill-rule="evenodd" clip-rule="evenodd" d="M13.9456 12.6561C13.5777 12.5165 13.1621 12.6057 12.8839 12.884C12.6056 13.1623 12.5164 13.5778 12.656 13.9458L15.8228 22.2945C15.969 22.68 16.3367 22.9362 16.7489 22.9399C17.1611 22.9435 17.5333 22.6938 17.6863 22.3111L19.007 19.0071L22.311 17.6865C22.6937 17.5334 22.9434 17.1612 22.9397 16.749C22.9361 16.3368 22.6799 15.9691 22.2944 15.8229L13.9456 12.6561Z" fill="#801ED7"/>
</svg>
